plasma/desktoptheme/Materia/icons/go.svg

<svg xmlns="http://www.w3.org/2000/svg" width="32" height="32" version="1.1">
 <g id="22-22-go-home" transform="translate(-455.0004,137.00336)">
  <path style="opacity:0.001" d="m 465.0004,-105.00336 h 22 v 22.000003 h -22 z"/>
  <path style="fill:#dfdfdf" d="m 468.0004,-94.00336 h 2 v 8 h 5 v -4 h 2 v 4 h 5 v -8 h 2 l -8,-8 z"/>
 </g>
 <g id="22-22-go-up" transform="translate(-455.0004,137.00336)">
  <path style="opacity:0.001" d="m 489.0004,-105.00336 v 22 h 22 v -22 z"/>
  <path style="fill:#dfdfdf" d="m 491.5004,-93.976987 2.11644,2.123305 4.36736,-4.379438 v 10.229758 h 2.99342 v -10.264919 l 4.40439,4.414599 2.11839,-2.123305 -8,-8.026373 z"/>
 </g>
 <g id="22-22-go-down" transform="matrix(1,0,0,-1,-431.0004,-51.00336)">
  <path style="opacity:0.001" d="m 489.0004,-105.00336 v 22 h 22 v -22 z"/>
  <path style="fill:#dfdfdf" d="m 491.5004,-93.976987 2.11644,2.123305 4.36736,-4.379438 v 10.229758 h 2.99342 v -10.264919 l 4.40439,4.414599 2.11839,-2.123305 -8,-8.026373 z"/>
 </g>
 <g id="22-22-go-previous" transform="translate(-455.0004,137.00336)">
  <path style="opacity:0.001" d="m 537.0004,-105.00336 h 22 v 22 h -22 z"/>
  <path style="fill:#dfdfdf" d="m 548.02677,-102.50336 2.12331,2.11644 -4.37944,4.36736 h 10.22976 v 2.99342 h -10.26492 l 4.4146,4.40439 -2.12331,2.11839 -8.02637,-8 z"/>
 </g>
 <g id="22-22-go-next" transform="matrix(-1,0,0,1,665.0004,137.00336)">
  <path style="opacity:0.001" d="m 537.0004,-105.00336 h 22 v 22 h -22 z"/>
  <path style="fill:#dfdfdf" d="m 548.02677,-102.50336 2.12331,2.11644 -4.37944,4.36736 h 10.22976 v 2.99342 h -10.26492 l 4.4146,4.40439 -2.12331,2.11839 -8.02637,-8 z"/>
 </g>
 <g id="go-home">
  <rect style="opacity:0.001" width="32" height="32" x="0" y="0"/>
  <g transform="translate(0.01671515)">
   <path style="opacity:0.2" d="M 28,29.741417 V 14.282401 l -1.955219,-1.96957 C 25.565311,11.829842 22.597246,9.1962893 21.943489,9.0697283 L 16.181295,4.7840891 9.6780827,9.2681803 C 9.1225774,9.6512118 6.2929299,12.0118 5.829076,12.511283 L 4,14.480853 V 29.741417 C 4,30.438672 4.5352,31 5.2000001,31 H 26.800001 C 27.4648,31 28,30.438672 28,29.741417 Z"/>
   <path style="fill:#e4e4e4" d="M 28,28.741417 V 13.282401 l -1.955219,-1.96957 C 25.565311,10.829842 22.597246,8.1962893 21.943489,8.0697283 L 16.181295,3.7840891 9.6780827,8.2681803 C 9.1225774,8.6512118 6.2929299,11.0118 5.829076,11.511283 L 4,13.480853 V 28.741417 C 4,29.438672 4.5352,30 5.2000001,30 H 26.800001 C 27.4648,30 28,29.438672 28,28.741417 Z"/>
   <rect style="opacity:0.15" width="24" height="1" x="4" y="13"/>
   <rect style="fill:#4f4f4f" width="4" height="7" x="5" y="4" rx=".713" ry=".765"/>
   <rect style="fill:#956a42" width="7" height="11" x="6" y="17" rx="1.05" ry="1.031"/>
   <path style="fill:#956a42" d="M 18.875,17 C 17.849222,17 17,17.849222 17,18.874999 V 24.125 C 17,25.150777 17.849222,26 18.875,26 h 5.25 C 25.150777,26 26,25.150777 26,24.125 V 18.874999 C 26,17.849222 25.150777,17 24.125,17 Z"/>
   <path style="opacity:0.2" d="M 19.312501,20.000001 C 19.128565,20.000001 19,20.128565 19,20.312501 V 24.6875 C 19,24.871436 19.128565,25 19.312501,25 h 4.374998 C 23.871435,25 24,24.871436 24,24.6875 v -4.374999 c 0,-0.183936 -0.128565,-0.3125 -0.312501,-0.3125 z"/>
   <path style="fill:#c2eeff" d="M 19.312501,19.000001 C 19.128565,19.000001 19,19.128565 19,19.312501 V 23.6875 C 19,23.871436 19.128565,24 19.312501,24 h 4.374998 C 23.871435,24 24,23.871436 24,23.6875 v -4.374999 c 0,-0.183936 -0.128565,-0.3125 -0.312501,-0.3125 z"/>
   <circle style="opacity:0.2" cx="11" cy="23" r="1"/>
   <circle style="fill:#ffffff" cx="11" cy="22" r="1"/>
   <path style="opacity:0.05" d="M 6.2110269,11.166298 C 5.8025914,11.50576 5.4668303,11.793571 5.3329141,11.931062 l -1.9187378,1.969266 v -0.681431 h 2.7968506 z"/>
   <path style="opacity:0.15" d="M 9,8.7364135 C 8.3061825,9.2129144 6.975372,10.191636 6,10.947401 V 13 h 3 z"/>
   <path style="opacity:0.05" d="M 12,6.8682047 9.3881835,8.4687465 C 9.3182555,8.5116065 9.1266817,8.6494112 9,8.7364135 V 13 h 3 z"/>
   <path style="opacity:0.15" d="M 15,5.0286751 12,6.8682047 V 13 h 3 z"/>
   <path style="opacity:0.05" d="M 16.703613,3.9839531 15,5.0286751 V 13 h 3 V 4.8415811 Z"/>
   <path style="opacity:0.15" d="M 18,4.8415811 V 13 h 3 V 6.824504 Z"/>
   <path style="opacity:0.05" d="M 21,6.824504 V 13 h 3 V 8.6776908 C 23.646664,8.458952 23.347843,8.298403 23.187012,8.2707274 Z"/>
   <path style="opacity:0.15" d="M 24,8.6776908 V 13 h 3 V 10.857268 C 26.149286,10.181864 24.880125,9.2225474 24,8.6776908 Z"/>
   <path style="opacity:0.05" d="m 25.788981,11.076165 v 2.142732 h 2.79685 v 0.483412 l -2.051206,-1.970632 c -0.11899,-0.114285 -0.401117,-0.362115 -0.745644,-0.655512 z"/>
   <path style="fill:none;stroke:#5d5d5d;stroke-width:3;stroke-linecap:round;stroke-linejoin:round" d="M 16.000004,3.5 3.5,13.5"/>
   <path style="fill:none;stroke:#5d5d5d;stroke-width:3;stroke-linecap:round;stroke-linejoin:round" d="m 16,3.5 12.5,10"/>
   <path style="opacity:0.1;fill:#ffffff;fill-rule:evenodd" d="m 15.966797,1.9863281 a 1.50015,1.50015 0 0 0 -1.101563,0.5 L 2.5625,12.328125 A 1.5007322,1.5007322 0 0 0 2.0859375,14 1.5007322,1.5007322 0 0 1 2.5625,13.328125 L 14.865234,3.4863281 a 1.50015,1.50015 0 0 1 1.101563,-0.5 1.50015,1.50015 0 0 1 0.01367,0 1.50015,1.50015 0 0 1 0.01172,0 1.50015,1.50015 0 0 1 1.142578,0.5 L 29.4375,13.328125 A 1.5007322,1.5007322 0 0 1 29.914062,14 1.5007322,1.5007322 0 0 0 29.4375,12.328125 L 17.134766,2.4863281 a 1.50015,1.50015 0 0 0 -1.142578,-0.5 1.50015,1.50015 0 0 0 -0.01172,0 1.50015,1.50015 0 0 0 -0.01367,0 z"/>
   <path style="opacity:0.1;fill:#ffffff" d="M 5.7128906,4 C 5.3181189,4 5,4.3415858 5,4.765625 v 1 C 5,5.3415858 5.3181189,5 5.7128906,5 H 8.2871094 C 8.6818811,5 9,5.3415858 9,5.765625 v -1 C 9,4.3415858 8.6818811,4 8.2871094,4 Z"/>
  </g>
 </g>
 <g id="go-previous" transform="matrix(-1,0,0,1,128,0)">
  <rect style="opacity:0.001" width="32" height="32" x="0" y="0"/>
  <rect style="opacity:0.2" width="22" height="4" x="2" y="15" rx="2" ry="2"/>
  <path style="opacity:0.2" d="m 20.797019,11.000734 a 1.7460457,1.722978 0 0 1 0.821787,0.229652 l 3.754305,2.138364 3.754305,2.139207 a 1.7460457,1.722978 0 0 1 0,2.983785 l -3.754305,2.139207 -3.754305,2.138365 A 1.7460457,1.722978 0 0 1 19,21.277842 V 17.00027 12.722698 a 1.7460457,1.722978 0 0 1 1.797019,-1.721964 z"/>
  <rect style="fill:#8e8e8e" width="22" height="4" x="2" y="14" rx="2" ry="2"/>
  <path style="fill:#e4e4e4" d="m 20.797019,10.000734 a 1.7460457,1.722978 0 0 1 0.821787,0.229652 l 3.754305,2.138364 3.754305,2.139207 a 1.7460457,1.722978 0 0 1 0,2.983785 l -3.754305,2.139207 -3.754305,2.138365 A 1.7460457,1.722978 0 0 1 19,20.277842 V 16.00027 11.722698 a 1.7460457,1.722978 0 0 1 1.797019,-1.721964 z"/>
  <path style="opacity:0.2;fill:#ffffff" d="M 20.796875,10 A 1.7460457,1.722978 0 0 0 19,11.722656 v 1 A 1.7460457,1.722978 0 0 1 20.796875,11 a 1.7460457,1.722978 0 0 1 0.822266,0.230469 l 3.753906,2.138672 3.753906,2.138671 A 1.7460457,1.722978 0 0 1 29.923828,16.5 1.7460457,1.722978 0 0 0 29.126953,14.507812 L 25.373047,12.369141 21.619141,10.230469 A 1.7460457,1.722978 0 0 0 20.796875,10 Z"/>
 </g>
 <g id="go-next" transform="translate(128)">
  <rect style="opacity:0.001" width="32" height="32" x="0" y="0"/>
  <rect style="opacity:0.2" width="22" height="4" x="2" y="15" rx="2" ry="2"/>
  <path style="opacity:0.2" d="m 20.797019,11.000734 a 1.7460457,1.722978 0 0 1 0.821787,0.229652 l 3.754305,2.138364 3.754305,2.139207 a 1.7460457,1.722978 0 0 1 0,2.983785 l -3.754305,2.139207 -3.754305,2.138365 A 1.7460457,1.722978 0 0 1 19,21.277842 V 17.00027 12.722698 a 1.7460457,1.722978 0 0 1 1.797019,-1.721964 z"/>
  <rect style="fill:#8e8e8e" width="22" height="4" x="2" y="14" rx="2" ry="2"/>
  <path style="fill:#e4e4e4" d="m 20.797019,10.000734 a 1.7460457,1.722978 0 0 1 0.821787,0.229652 l 3.754305,2.138364 3.754305,2.139207 a 1.7460457,1.722978 0 0 1 0,2.983785 l -3.754305,2.139207 -3.754305,2.138365 A 1.7460457,1.722978 0 0 1 19,20.277842 V 16.00027 11.722698 a 1.7460457,1.722978 0 0 1 1.797019,-1.721964 z"/>
  <path style="opacity:0.2;fill:#ffffff" d="M 20.796875,10 A 1.7460457,1.722978 0 0 0 19,11.722656 v 1 A 1.7460457,1.722978 0 0 1 20.796875,11 a 1.7460457,1.722978 0 0 1 0.822266,0.230469 l 3.753906,2.138672 3.753906,2.138671 A 1.7460457,1.722978 0 0 1 29.923828,16.5 1.7460457,1.722978 0 0 0 29.126953,14.507812 L 25.373047,12.369141 21.619141,10.230469 A 1.7460457,1.722978 0 0 0 20.796875,10 Z"/>
 </g>
 <g id="go-down" transform="translate(64)">
  <rect style="opacity:0.001" width="32" height="32" x="0" y="0"/>
  <rect style="fill:#8e8e8e" width="22" height="4" x="2" y="-18" rx="2" ry="2" transform="rotate(90)"/>
  <path style="opacity:0.2" d="m 21.999266,21.797019 a 1.722978,1.7460457 0 0 1 -0.229652,0.821787 l -2.138364,3.754305 -2.139207,3.754305 a 1.722978,1.7460457 0 0 1 -2.983785,0 L 12.369051,26.373111 10.230686,22.618806 A 1.722978,1.7460457 0 0 1 11.722158,20 h 4.277572 4.277572 a 1.722978,1.7460457 0 0 1 1.721964,1.797019 z"/>
  <path style="fill:#e4e4e4" d="m 21.999266,20.797019 a 1.722978,1.7460457 0 0 1 -0.229652,0.821787 l -2.138364,3.754305 -2.139207,3.754305 a 1.722978,1.7460457 0 0 1 -2.983785,0 L 12.369051,25.373111 10.230686,21.618806 A 1.722978,1.7460457 0 0 1 11.722158,19 h 4.277572 4.277572 a 1.722978,1.7460457 0 0 1 1.721964,1.797019 z"/>
  <path style="opacity:0.2;fill:#ffffff" d="M 11.722656,19 A 1.722978,1.7460457 0 0 0 10.074219,21.246094 1.722978,1.7460457 0 0 1 11.722656,20 H 16 20.277344 A 1.722978,1.7460457 0 0 1 21.925781,21.246094 1.722978,1.7460457 0 0 0 22,20.796875 1.722978,1.7460457 0 0 0 20.277344,19 H 16 Z"/>
 </g>
 <g id="go-up" transform="translate(32)">
  <rect style="opacity:0.001" width="32" height="32" x="0" y="-32" transform="scale(1,-1)"/>
  <rect style="opacity:0.2" width="22" height="4" x="-31" y="-18" rx="2" ry="2" transform="matrix(0,-1,-1,0,0,0)"/>
  <rect style="fill:#8e8e8e" width="22" height="4" x="-30" y="-18" rx="2" ry="2" transform="matrix(0,-1,-1,0,0,0)"/>
  <path style="opacity:0.2" d="M 21.999266,12.202981 A 1.722978,1.7460457 0 0 0 21.769614,11.381194 L 19.63125,7.626889 17.492043,3.872584 a 1.722978,1.7460457 0 0 0 -2.983785,0 l -2.139207,3.754305 -2.138365,3.754305 A 1.722978,1.7460457 0 0 0 11.722158,14 h 4.277572 4.277572 a 1.722978,1.7460457 0 0 0 1.721964,-1.797019 z"/>
  <path style="fill:#e4e4e4" d="M 21.999266,11.202981 A 1.722978,1.7460457 0 0 0 21.769614,10.381194 L 19.63125,6.626889 17.492043,2.872584 a 1.722978,1.7460457 0 0 0 -2.983785,0 l -2.139207,3.754305 -2.138365,3.754305 A 1.722978,1.7460457 0 0 0 11.722158,13 h 4.277572 4.277572 a 1.722978,1.7460457 0 0 0 1.721964,-1.797019 z"/>
  <path style="opacity:0.2;fill:#ffffff" d="m 15.908203,2.0019531 a 1.722978,1.7460457 0 0 0 -1.400391,0.8710938 l -2.138671,3.7539062 -2.138672,3.7539059 a 1.722978,1.7460457 0 0 0 -0.15625,1.373047 1.722978,1.7460457 0 0 1 0.15625,-0.373047 l 2.138672,-3.7539059 2.138671,-3.7539062 a 1.722978,1.7460457 0 0 1 2.984376,0 l 2.138671,3.7539062 2.138672,3.7539059 a 1.722978,1.7460457 0 0 1 0.15625,0.373047 A 1.722978,1.7460457 0 0 0 22,11.203125 1.722978,1.7460457 0 0 0 21.769531,10.380859 L 19.630859,6.6269531 17.492188,2.8730469 A 1.722978,1.7460457 0 0 0 15.908203,2.0019531 Z"/>
 </g>
</svg>

<?xml version="1.0" encoding="UTF-8"?>
<svg width="32" height="32" version="1.1" xmlns="http://www.w3.org/2000/svg">
 <g id="22-22-go-home" transform="translate(-455 137)">
  <path d="m465-105h22v22h-22z" opacity=".001"/>
  <path d="m468-94.003h2v8h5v-4h2v4h5v-8h2l-8-8z" fill="#dfdfdf"/>
 </g>
 <g id="22-22-go-up" transform="translate(-455 137)">
  <path d="m489-105v22h22v-22z" opacity=".001"/>
  <path d="m491.5-93.977 2.1164 2.1233 4.3674-4.3794v10.23h2.9934v-10.265l4.4044 4.4146 2.1184-2.1233-8-8.0264z" fill="#dfdfdf"/>
 </g>
 <g id="22-22-go-down" transform="matrix(1 0 0 -1 -431 -51.003)">
  <path d="m489-105v22h22v-22z" opacity=".001"/>
  <path d="m491.5-93.977 2.1164 2.1233 4.3674-4.3794v10.23h2.9934v-10.265l4.4044 4.4146 2.1184-2.1233-8-8.0264z" fill="#dfdfdf"/>
 </g>
 <g id="22-22-go-previous" transform="translate(-455 137)">
  <path d="m537-105h22v22h-22z" opacity=".001"/>
  <path d="m548.03-102.5 2.1233 2.1164-4.3794 4.3674h10.23v2.9934h-10.265l4.4146 4.4044-2.1233 2.1184-8.0264-8z" fill="#dfdfdf"/>
 </g>
 <g id="22-22-go-next" transform="matrix(-1 0 0 1 665 137)">
  <path d="m537-105h22v22h-22z" opacity=".001"/>
  <path d="m548.03-102.5 2.1233 2.1164-4.3794 4.3674h10.23v2.9934h-10.265l4.4146 4.4044-2.1233 2.1184-8.0264-8z" fill="#dfdfdf"/>
 </g>
 <g id="go-home">
  <rect width="32" height="32" opacity=".001"/>
  <g transform="translate(.016715)">
   <path d="m28 29.741v-15.459l-1.9552-1.9696c-0.47947-0.48299-3.4475-3.1165-4.1013-3.2431l-5.7622-4.2856-6.5032 4.4841c-0.55551 0.38303-3.3852 2.7436-3.849 3.2431l-1.8291 1.9696v15.261c0 0.69726 0.5352 1.2586 1.2 1.2586h21.6c0.6648 0 1.2-0.56133 1.2-1.2586z" opacity=".2"/>
   <path d="m28 28.741v-15.459l-1.9552-1.9696c-0.47947-0.48299-3.4475-3.1165-4.1013-3.2431l-5.7622-4.2856-6.5032 4.4841c-0.55551 0.38303-3.3852 2.7436-3.849 3.2431l-1.8291 1.9696v15.261c0 0.69726 0.5352 1.2586 1.2 1.2586h21.6c0.6648 0 1.2-0.56133 1.2-1.2586z" fill="#e4e4e4"/>
   <rect x="4" y="13" width="24" height="1" opacity=".15"/>
   <rect x="5" y="4" width="4" height="7" rx=".713" ry=".765" fill="#4f4f4f"/>
   <rect x="6" y="17" width="7" height="11" rx="1.05" ry="1.031" fill="#956a42"/>
   <path d="m18.875 17c-1.0258 0-1.875 0.84922-1.875 1.875v5.25c0 1.0258 0.84922 1.875 1.875 1.875h5.25c1.0258 0 1.875-0.84922 1.875-1.875v-5.25c0-1.0258-0.84922-1.875-1.875-1.875z" fill="#956a42"/>
   <path d="m19.313 20c-0.18394 0-0.3125 0.12856-0.3125 0.3125v4.375c0 0.18394 0.12856 0.3125 0.3125 0.3125h4.375c0.18394 0 0.3125-0.12856 0.3125-0.3125v-4.375c0-0.18394-0.12856-0.3125-0.3125-0.3125z" opacity=".2"/>
   <path d="m19.313 19c-0.18394 0-0.3125 0.12856-0.3125 0.3125v4.375c0 0.18394 0.12856 0.3125 0.3125 0.3125h4.375c0.18394 0 0.3125-0.12856 0.3125-0.3125v-4.375c0-0.18394-0.12856-0.3125-0.3125-0.3125z" fill="#c2eeff"/>
   <circle cx="11" cy="23" r="1" opacity=".2"/>
   <circle cx="11" cy="22" r="1" fill="#fff"/>
   <path d="m6.211 11.166c-0.40844 0.33946-0.7442 0.62727-0.87811 0.76476l-1.9187 1.9693v-0.68143h2.7969z" opacity=".05"/>
   <path d="m9 8.7364c-0.69382 0.4765-2.0246 1.4552-3 2.211v2.0526h3z" opacity=".15"/>
   <path d="m12 6.8682-2.6118 1.6005c-0.069928 0.04286-0.2615 0.18066-0.38818 0.26767v4.2636h3z" opacity=".05"/>
   <path d="m15 5.0287-3 1.8395v6.1318h3z" opacity=".15"/>
   <path d="m16.704 3.984-1.7036 1.0447v7.9713h3v-8.1584z" opacity=".05"/>
   <path d="m18 4.8416v8.1584h3v-6.1755z" opacity=".15"/>
   <path d="m21 6.8245v6.1755h3v-4.3223c-0.35334-0.21874-0.65216-0.37929-0.81299-0.40696z" opacity=".05"/>
   <path d="m24 8.6777v4.3223h3v-2.1427c-0.85071-0.6754-2.1199-1.6347-3-2.1796z" opacity=".15"/>
   <path d="m25.789 11.076v2.1427h2.7968v0.48341l-2.0512-1.9706c-0.11899-0.11428-0.40112-0.36212-0.74564-0.65551z" opacity=".05"/>
   <path d="m16 3.5-12.5 10" fill="none" stroke="#5d5d5d" stroke-linecap="round" stroke-linejoin="round" stroke-width="3"/>
   <path d="m16 3.5 12.5 10" fill="none" stroke="#5d5d5d" stroke-linecap="round" stroke-linejoin="round" stroke-width="3"/>
   <path d="m15.967 1.9863a1.5002 1.5002 0 0 0-1.1016 0.5l-12.303 9.8418a1.5007 1.5007 0 0 0-0.47656 1.6719 1.5007 1.5007 0 0 1 0.47656-0.67188l12.303-9.8418a1.5002 1.5002 0 0 1 1.1016-0.5 1.5002 1.5002 0 0 1 0.01367 0 1.5002 1.5002 0 0 1 0.01172 0 1.5002 1.5002 0 0 1 1.1426 0.5l12.303 9.8418a1.5007 1.5007 0 0 1 0.47656 0.67188 1.5007 1.5007 0 0 0-0.47656-1.6719l-12.303-9.8418a1.5002 1.5002 0 0 0-1.1426-0.5 1.5002 1.5002 0 0 0-0.01172 0 1.5002 1.5002 0 0 0-0.01367 0z" fill="#fff" fill-rule="evenodd" opacity=".1"/>
   <path d="M 5.7128906,4 C 5.3181189,4 5,4.3415858 5,4.765625 v 1 C 5,5.3415858 5.3181189,5 5.7128906,5 H 8.2871094 C 8.6818811,5 9,5.3415858 9,5.765625 v -1 C 9,4.3415858 8.6818811,4 8.2871094,4 Z" fill="#fff" opacity=".1"/>
  </g>
 </g>
 <g id="go-previous" transform="matrix(-1,0,0,1,128,0)">
  <rect width="32" height="32" opacity=".001"/>
  <rect x="2" y="15" width="22" height="4" rx="2" ry="2" opacity=".2"/>
  <path d="m20.797 11.001a1.746 1.723 0 0 1 0.82179 0.22965l3.7543 2.1384 3.7543 2.1392a1.746 1.723 0 0 1 0 2.9838l-3.7543 2.1392-3.7543 2.1384a1.746 1.723 0 0 1-2.6188-1.4915v-8.5551a1.746 1.723 0 0 1 1.797-1.722z" opacity=".2"/>
  <rect x="2" y="14" width="22" height="4" rx="2" ry="2" fill="#8e8e8e"/>
  <path d="m20.797 10.001a1.746 1.723 0 0 1 0.82179 0.22965l3.7543 2.1384 3.7543 2.1392a1.746 1.723 0 0 1 0 2.9838l-3.7543 2.1392-3.7543 2.1384a1.746 1.723 0 0 1-2.6188-1.4915v-8.5551a1.746 1.723 0 0 1 1.797-1.722z" fill="#e4e4e4"/>
  <path d="m20.797 10a1.746 1.723 0 0 0-1.7969 1.7227v1a1.746 1.723 0 0 1 1.7969-1.7227 1.746 1.723 0 0 1 0.82227 0.23047l7.5078 4.2773a1.746 1.723 0 0 1 0.79688 0.99219 1.746 1.723 0 0 0-0.79688-1.9922l-7.5078-4.2773a1.746 1.723 0 0 0-0.82227-0.23047z" fill="#fff" opacity=".2"/>
 </g>
 <g id="go-next" transform="translate(128)">
  <rect width="32" height="32" opacity=".001"/>
  <rect x="2" y="15" width="22" height="4" rx="2" ry="2" opacity=".2"/>
  <path d="m20.797 11.001a1.746 1.723 0 0 1 0.82179 0.22965l3.7543 2.1384 3.7543 2.1392a1.746 1.723 0 0 1 0 2.9838l-3.7543 2.1392-3.7543 2.1384a1.746 1.723 0 0 1-2.6188-1.4915v-8.5551a1.746 1.723 0 0 1 1.797-1.722z" opacity=".2"/>
  <rect x="2" y="14" width="22" height="4" rx="2" ry="2" fill="#8e8e8e"/>
  <path d="m20.797 10.001a1.746 1.723 0 0 1 0.82179 0.22965l3.7543 2.1384 3.7543 2.1392a1.746 1.723 0 0 1 0 2.9838l-3.7543 2.1392-3.7543 2.1384a1.746 1.723 0 0 1-2.6188-1.4915v-8.5551a1.746 1.723 0 0 1 1.797-1.722z" fill="#e4e4e4"/>
  <path d="m20.797 10a1.746 1.723 0 0 0-1.7969 1.7227v1a1.746 1.723 0 0 1 1.7969-1.7227 1.746 1.723 0 0 1 0.82227 0.23047l7.5078 4.2773a1.746 1.723 0 0 1 0.79688 0.99219 1.746 1.723 0 0 0-0.79688-1.9922l-7.5078-4.2773a1.746 1.723 0 0 0-0.82227-0.23047z" fill="#fff" opacity=".2"/>
 </g>
 <g id="go-down" transform="translate(64)">
  <rect width="32" height="32" opacity=".001"/>
  <rect transform="rotate(90)" x="2" y="-18" width="22" height="4" rx="2" ry="2" fill="#8e8e8e"/>
  <path d="m21.999 21.797a1.723 1.746 0 0 1-0.22965 0.82179l-2.1384 3.7543-2.1392 3.7543a1.723 1.746 0 0 1-2.9838 0l-2.1392-3.7543-2.1384-3.7543a1.723 1.746 0 0 1 1.4915-2.6188h8.5551a1.723 1.746 0 0 1 1.722 1.797z" opacity=".2"/>
  <path d="m21.999 20.797a1.723 1.746 0 0 1-0.22965 0.82179l-2.1384 3.7543-2.1392 3.7543a1.723 1.746 0 0 1-2.9838 0l-2.1392-3.7543-2.1384-3.7543a1.723 1.746 0 0 1 1.4915-2.6188h8.5551a1.723 1.746 0 0 1 1.722 1.797z" fill="#e4e4e4"/>
  <path d="m11.723 19a1.723 1.746 0 0 0-1.6484 2.2461 1.723 1.746 0 0 1 1.6484-1.2461h8.5547a1.723 1.746 0 0 1 1.6484 1.2461 1.723 1.746 0 0 0 0.074219-0.44922 1.723 1.746 0 0 0-1.7227-1.7969h-4.2773z" fill="#fff" opacity=".2"/>
 </g>
 <g id="go-up" transform="translate(32)">
  <rect transform="scale(1,-1)" y="-32" width="32" height="32" opacity=".001"/>
  <rect transform="matrix(0,-1,-1,0,0,0)" x="-31" y="-18" width="22" height="4" rx="2" ry="2" opacity=".2"/>
  <rect transform="matrix(0,-1,-1,0,0,0)" x="-30" y="-18" width="22" height="4" rx="2" ry="2" fill="#8e8e8e"/>
  <path d="m21.999 12.203a1.723 1.746 0 0 0-0.22965-0.82179l-2.1384-3.7543-2.1392-3.7543a1.723 1.746 0 0 0-2.9838 0l-2.1392 3.7543-2.1384 3.7543a1.723 1.746 0 0 0 1.4915 2.6188h8.5551a1.723 1.746 0 0 0 1.722-1.797z" opacity=".2"/>
  <path d="m21.999 11.203a1.723 1.746 0 0 0-0.22965-0.82179l-2.1384-3.7543-2.1392-3.7543a1.723 1.746 0 0 0-2.9838 0l-2.1392 3.7543-2.1384 3.7543a1.723 1.746 0 0 0 1.4915 2.6188h8.5551a1.723 1.746 0 0 0 1.722-1.797z" fill="#e4e4e4"/>
  <path d="m15.908 2.002a1.723 1.746 0 0 0-1.4004 0.87109l-4.2773 7.5078a1.723 1.746 0 0 0-0.15625 1.373 1.723 1.746 0 0 1 0.15625-0.37305l4.2773-7.5078a1.723 1.746 0 0 1 2.9844 0l4.2773 7.5078a1.723 1.746 0 0 1 0.15625 0.37305 1.723 1.746 0 0 0 0.074219-0.55078 1.723 1.746 0 0 0-0.23047-0.82227l-4.2773-7.5078a1.723 1.746 0 0 0-1.584-0.87109z" fill="#fff" opacity=".2"/>
 </g>
</svg>
